X: 073
M: 6/8
L: 1/8
K: Gm
d3 ece | d2g d2e |\
d2c{B}!+!B2A | G2B {B}!+!A2G |\
d2 ece | d2g {g}f2=e |\
agf {f}=ed^c | {c}d2 :|
|: f !f!G2f |\
{g}f3 e2d | {d}c2e F2e |\
e3 d2c | {c}!+!B2B {B} A2G |\
d3 ece | d2g d2e |\
{e}dcB AG^F | G2 :|

